symbols/web/fastfood/materialsymbolsrounded/fastfood_wght700_40px.svg

<svg xmlns="http://www.w3.org/2000/svg" height="40" width="40"><path d="M2.958 26.542q-.958 0-1.562-.688-.604-.687-.354-1.521.791-3.375 3.896-5.479 3.104-2.104 8.395-2.104 5.292 0 8.396 2.104 3.104 2.104 3.896 5.479.25.834-.354 1.521-.604.688-1.563.688Zm25.75 12.875v-4.375h3.667l2.25-22.875h-16.25l-.25-1.917q-.125-1 .521-1.708.646-.709 1.646-.709h6.125V2.542q0-.834.541-1.396.542-.563 1.334-.563.833 0 1.375.563.541.562.541 1.396v5.291h6.875q.959 0 1.625.73.667.729.542 1.687l-2.667 26.333q-.125 1.125-.937 1.979-.813.855-1.938.855Zm0-4.375h3.667-3.667ZM21.167 23.25q-.959-1.417-2.875-2.312-1.917-.896-5.084-.896-3.166 0-5.104.896-1.937.895-2.854 2.312Zm-7.959 0Zm-11 9.333q-.666 0-1.146-.479-.479-.479-.479-1.146 0-.708.479-1.187.48-.479 1.188-.479h21.958q.667 0 1.146.479.479.479.479 1.187 0 .667-.479 1.146-.479.479-1.146.479Zm0 6.834q-.666 0-1.146-.479-.479-.48-.479-1.188t.479-1.167q.48-.458 1.188-.458h21.958q.667 0 1.146.458.479.459.479 1.167 0 .667-.479 1.167t-1.146.5Z"/></svg>

<svg xmlns="http://www.w3.org/2000/svg" height="40" width="40"><path d="M2.75 39.417Q1.875 39.417 1.292 38.812Q0.708 38.208 0.708 37.333Q0.708 36.5 1.292 35.917Q1.875 35.333 2.75 35.333H23.917Q24.792 35.333 25.354 35.896Q25.917 36.458 25.917 37.333Q25.917 38.208 25.354 38.812Q24.792 39.417 23.917 39.417ZM2.958 26.542Q2 26.542 1.396 25.854Q0.792 25.167 1.042 24.333Q1.833 20.958 4.938 18.854Q8.042 16.75 13.333 16.75Q18.625 16.75 21.729 18.854Q24.833 20.958 25.625 24.333Q25.875 25.167 25.271 25.854Q24.667 26.542 23.708 26.542ZM2.75 32.958Q1.875 32.958 1.292 32.396Q0.708 31.833 0.708 30.958Q0.708 30.083 1.292 29.5Q1.875 28.917 2.75 28.917H23.917Q24.792 28.917 25.354 29.5Q25.917 30.083 25.917 30.958Q25.917 31.833 25.354 32.396Q24.792 32.958 23.917 32.958ZM28.708 39.417V35.042H32.375L34.625 12.167H18.375L18.125 10.25Q18 9.25 18.646 8.542Q19.292 7.833 20.292 7.833H26.417V2.542Q26.417 1.708 26.958 1.146Q27.5 0.583 28.292 0.583Q29.125 0.583 29.667 1.146Q30.208 1.708 30.208 2.542V7.833H37.083Q38.042 7.833 38.708 8.563Q39.375 9.292 39.25 10.25L36.583 36.583Q36.458 37.708 35.646 38.562Q34.833 39.417 33.708 39.417ZM28.708 35.042H32.375H28.708Q28.708 35.042 28.708 35.042Q28.708 35.042 28.708 35.042ZM5.375 23.25H21.25Q20.5 21.792 18.458 20.917Q16.417 20.042 13.333 20.042Q10.25 20.042 8.188 20.917Q6.125 21.792 5.375 23.25ZM5.375 23.25Q6.125 23.25 8.188 23.25Q10.25 23.25 13.333 23.25Q16.417 23.25 18.458 23.25Q20.5 23.25 21.25 23.25Z"/></svg>
